X:1
T:My Ain Folk
M:4/4
L:1/4
K:F
 C| F3/2 E/2 F G| A/2 G2 z/2 F| G/2 F3/2 D3/2 F/2| C2 z C/2C/2| B/2 B3/2 c3/2 G/2|\
 B/2 A3/2 G F| D F G A| G2 z C| F3/2 E/2 F3/2 G/2| A/2 G3/2 z F/2F/2|\
 G F DD/2-F/2| A3 z/2 A/2| A3/2 G/2 =B G| G/2 c3/2 z C/2C/2| D3/2 F/2 E D|\
 G2 z C/2C/2| c3 B/2A/2| G/2 F3/2 G- G/2A/2| D D2 D| d3B/2-A/2| G/2 F3/2 A- A/2G/2|\
 F F z A/2B/2| c3/2 f/2 e d| c2 z G/2A/2| B3/2 B/2 d- d/2A/2| B3 D|\
 C3/2 D/2 F A| c/2 A3/2 F- F/2A/2| G2 F||
